X:1332
T:Crimson rose, The
O:england
M:C|
R:Reel
C:Lars Johannesson
K:Emin
EFGB BGEF|~G2 BG AFDF|~A3B ADEF|~G3F FEDF|\
EFGB BGEF|~G2 BG AFDF|~A3B AddB|B/2A/2G AF E4::\
Beeg Beef|~d3f afed|B2 ef g/2a/2b ag|afdf a3/2 b/4a/4 gf|\
Beeg Beef|~d3f a2ga|bgaf ~g3f|1 fedB BAGA:|2 fedB BAGF||E8||


